dist/img/svg/ic_filter.svg

<svg width="20" height="20" viewBox="0 0 20 20" fill="none" xmlns="http://www.w3.org/2000/svg">
<path d="M18.9248 1.50595e-06H1.09382C0.779325 -0.000593372 0.491008 0.175093 0.347247 0.454883C0.201502 0.73844 0.227082 1.0799 0.413278 1.33887L6.94581 10.5412C6.94799 10.5444 6.95037 10.5473 6.95255 10.5505C7.1899 10.871 7.3182 11.259 7.31899 11.658V19.1605C7.3176 19.3828 7.40485 19.5962 7.5615 19.7538C7.71815 19.9115 7.93112 19.9999 8.1532 19.9999C8.26623 19.9999 8.37787 19.9773 8.48217 19.9341L12.1529 18.5343C12.4819 18.434 12.7002 18.1237 12.7002 17.7499V11.658C12.7008 11.2592 12.8293 10.871 13.0665 10.5505C13.0687 10.5473 13.071 10.5444 13.0732 10.5412L19.6055 1.33847C19.7917 1.0797 19.8173 0.73844 19.6716 0.454883C19.5278 0.175093 19.2395 -0.000593372 18.9248 1.50595e-06ZM12.2479 9.94909C11.8831 10.4442 11.6858 11.0429 11.6846 11.658V17.6266L8.33424 18.904V11.658C8.33305 11.0429 8.13575 10.4442 7.7707 9.94909L1.42873 1.01526H18.5901L12.2479 9.94909Z" fill="black"/>
</svg>

<svg width="20" height="20" viewBox="0 0 20 20" fill="none" xmlns="http://www.w3.org/2000/svg"><path d="M18.925 0H1.094a.838.838 0 00-.747.455.85.85 0 00.066.884l6.533 9.202.007.01c.237.32.365.708.366 1.107v7.502a.834.834 0 001.163.774l3.67-1.4c.33-.1.548-.41.548-.784v-6.092c0-.399.13-.787.367-1.107l.006-.01 6.532-9.203a.849.849 0 00.067-.883.838.838 0 00-.747-.455zm-6.677 9.95a2.89 2.89 0 00-.563 1.708v5.969l-3.35 1.277v-7.246a2.889 2.889 0 00-.564-1.709L1.429 1.015H18.59L12.248 9.95z" fill="#000"/></svg>
